dist/img/services-item-3.svg

<svg width="90" height="90" viewBox="0 0 90 90" fill="none" xmlns="http://www.w3.org/2000/svg">
<g clip-path="url(#clip0_21_522)">
<mask id="mask0_21_522" style="mask-type:luminance" maskUnits="userSpaceOnUse" x="0" y="0" width="90" height="90">
<path d="M0 7.62939e-06H90V90H0V7.62939e-06Z" fill="white"/>
</mask>
<g mask="url(#mask0_21_522)">
<path d="M41.9239 7.04066H34.6397C34.2306 7.04066 33.8993 7.37219 33.8993 7.78106V33.1586C33.8993 33.5675 33.5677 33.899 33.1587 33.899H7.78116C7.3723 33.899 7.04077 34.2305 7.04077 34.6394V55.3605C7.04077 55.7693 7.3723 56.1009 7.78116 56.1009H33.1587C33.5677 56.1009 33.8993 56.4324 33.8993 56.8412V82.219C33.8993 82.6278 34.2306 82.9594 34.6397 82.9594H55.3606C55.7696 82.9594 56.101 82.6278 56.101 82.219V56.8412C56.101 56.4324 56.4327 56.1009 56.8415 56.1009H82.2191C82.6279 56.1009 82.9595 55.7693 82.9595 55.3605V34.6394C82.9595 34.2305 82.6279 33.899 82.2191 33.899H56.8415C56.4327 33.899 56.101 33.5675 56.101 33.1586V7.78106C56.101 7.37219 55.7696 7.04066 55.3606 7.04066H48.0762" stroke="#0779FF" stroke-width="2" stroke-miterlimit="10" stroke-linecap="round" stroke-linejoin="round"/>
<path d="M88.6818 41.9238V34.6394C88.6818 31.07 85.7883 28.1765 82.2189 28.1765H62.5639C62.155 28.1765 61.8235 27.8449 61.8235 27.4361V7.78109C61.8235 4.21167 58.93 1.31813 55.3605 1.31813H34.6396C31.0702 1.31813 28.1767 4.21167 28.1767 7.78109V27.4361C28.1767 27.8449 27.8451 28.1765 27.4363 28.1765H7.78113C4.21172 28.1765 1.31818 31.07 1.31818 34.6394V55.3605C1.31818 58.9299 4.21172 61.8234 7.78113 61.8234H27.4363C27.8451 61.8234 28.1767 62.155 28.1767 62.5638V82.2188C28.1767 85.7882 31.0702 88.6818 34.6396 88.6818H55.3605C58.93 88.6818 61.8235 85.7882 61.8235 82.2188V62.5638C61.8235 62.155 62.155 61.8234 62.5639 61.8234H82.2189C85.7883 61.8234 88.6818 58.9299 88.6818 55.3605V48.0761" stroke="#0779FF" stroke-width="2" stroke-miterlimit="10" stroke-linecap="round" stroke-linejoin="round"/>
</g>
</g>
<defs>
<clipPath id="clip0_21_522">
<rect width="90" height="90" fill="white"/>
</clipPath>
</defs>
</svg>

<svg width="90" height="90" fill="none" xmlns="http://www.w3.org/2000/svg"><g clip-path="url(#a)"><mask id="b" style="mask-type:luminance" maskUnits="userSpaceOnUse" x="0" y="0" width="90" height="90"><path d="M0 0h90v90H0V0Z" fill="#fff"/></mask><g mask="url(#b)" stroke="#0779FF" stroke-width="2" stroke-miterlimit="10" stroke-linecap="round" stroke-linejoin="round"><path d="M41.924 7.04H34.64a.74.74 0 0 0-.74.741V33.16a.74.74 0 0 1-.741.74H7.78a.74.74 0 0 0-.74.74v20.72c0 .41.331.74.74.74h25.38a.74.74 0 0 1 .74.741V82.22c0 .409.332.74.74.74h20.722a.74.74 0 0 0 .74-.74V56.841a.74.74 0 0 1 .74-.74H82.22a.74.74 0 0 0 .74-.74V34.639a.74.74 0 0 0-.74-.74H56.842a.74.74 0 0 1-.741-.74V7.78a.74.74 0 0 0-.74-.74h-7.285"/><path d="M88.682 41.924v-7.285a6.463 6.463 0 0 0-6.463-6.463H62.564a.74.74 0 0 1-.74-.74V7.781a6.463 6.463 0 0 0-6.463-6.463H34.64a6.463 6.463 0 0 0-6.463 6.463v19.655a.74.74 0 0 1-.74.74H7.78a6.463 6.463 0 0 0-6.463 6.463V55.36a6.463 6.463 0 0 0 6.463 6.463h19.655a.74.74 0 0 1 .74.74V82.22a6.463 6.463 0 0 0 6.464 6.463h20.72a6.463 6.463 0 0 0 6.464-6.463V62.564a.74.74 0 0 1 .74-.74h19.655a6.463 6.463 0 0 0 6.463-6.463v-7.285"/></g></g><defs><clipPath id="a"><path fill="#fff" d="M0 0h90v90H0z"/></clipPath></defs></svg>
